X:1
T:Nearer the Cross
T:Nearer the Cross
T:Frank Marion Davis
T:Charlotte Abbey, 1890
T:Public Domain Courtesy of the Cyber Hymnal™
C:Frank Marion Davis
Z:Public Domain
Z:Courtesy of the Cyber Hymnal™
%%score ( 1 2 ) 3
L:1/8
Q:1/4=105
M:4/4
K:G
V:1 treble 
V:2 treble 
V:3 bass 
V:1
 [GB]2 [Gc]>[GB] [FA]2 G2 | [EA]4 [CE]4 | D2 [DG]2 [DF]2 [DG]2 | ([GB]4 [FA]4) | %4
w: 1.~Near- er the cross of|Je- sus|Ev- er let me|be; *|
w: 2.~Near- er the cross of|Je- sus,|There I would a-|bide; *|
w: 3.~Near- er the cross of|Je- sus,|Let me live and|die; *|
 [GB]2 [Gc]>[GB] [FA]2 G2 | [EA]4 [CE]4 | (D2 G2) [FA]2 [FB]2 | G8 || %8
w: Near- er the flow- ing|fount- ain,|That * cleans- eth|me.|
w: There let me rest for-|ev- er,|Near * Je- sus’|side.|
w: There I will find sweet|ref- uge,|And * safe- ty|nigh.|
"^Refrain" [Ac]2 [Ac]>[GB] [FA]4 | [Gd]2 [Gd]>[Gc] [GB]4 | [Gd]2 [Ge]>[Gd] [Gc]2 [GB]2 | %11
w: |||
w: Near- er the cross,|near- er the cross,|Near- er the cross of|
w: |||
 [GB]4 [FA]4 | [GB]2 [Gc]>[GB] [FA]2 G2 | [EA]4 [CE]4 | (D2 G2) [FA]2 [FB]2 | G8 |] %16
w: |||||
w: Je- sus,|Near- er the flow- ing|fount- ain,|That * clean- seth|me.|
w: |||||
V:2
 x6 G2 | x8 | D2 x6 | x8 | x6 G2 | x8 | D4 x4 | G8 || x8 | x8 | x8 | x8 | x6 G2 | x8 | D4 x4 | %15
 G8 |] %16
V:3
 [G,D]2 [G,E]>[G,D] [D,C]2 [E,B,]2 | [C,C]4 [C,G,]4 | [G,B,]2 [B,D]2 [A,C]2 [G,B,]2 | [D,D]8 | %4
 [G,D]2 [G,E]>[G,D] [D,C]2 [E,B,]2 | [C,C]4 [C,G,]4 | [D,B,]4 [D,C]2 [D,D]2 | [G,B,]8 || %8
 [D,D]2 [D,D]>[D,D] [D,D]4 | [G,B,]2 [G,B,]>[G,C] [G,D]4 | [G,B,]2 [G,C]>[G,B,] [G,E]2 [G,D]2 | %11
 [D,D]4 [D,D]4 | [G,D]2 [G,E]>[G,D] [D,C]2 [E,B,]2 | [C,C]4 [C,G,]4 | [D,B,]4 [D,C]2 [D,D]2 | %15
 [G,B,]8 |] %16

